X: 28
T:Daly's Reel Variation 1
M:4/4
L:1/8
Q:120
C:Traditional
S:Arrangement by S. Cruzen
R:Reel
K:G
B,D|:"G"G2 B-A GDB,D|GABG cBAG|"D"AcAc AFDF|Ac(3BcB AFDF|!
"G"G2 B-A GDB,D|GABG cBAG|"D"AcAc Bdc~B|[1AFDF "G"G2 B,D:|[2AFDF "G"GABd
